X:3496
T:Country Dance Polka. GHW.002
M:2/4
L:1/8
S:George H.Watson,MS,Swanton Abbott,Norfolk,1850-1880
R:Polka
O:England
A:Norfolk
N:
Z:vmp.Taz Tarry
K:D
(3FGA BA|dA f2|fe fd|ed fd|(3FGA BA|dA f2|fe ac|ddd:|!
|:(3efe ^de|ac e2|(3efe dB|fe e2|(3efe ^de|ac e2|(3efe dB|ddd:|!
|:dg Bd|GB D2|BA cG|ed d2|dg Bd|Ad D2|BA cG|AG G2:|


